X:23
T:Valsen til Christine (Carl Erik Lundgard Jensen)
C:To-rader pa dansk
M:3/4
L:1/8
K:C
CG, CE GF|E3~D C2|CG, CE FE|C3B,A,2|\
B,G, B,D G_G|F2 DB,2D|1 CE G,C EC|\
D6:|2 CE G,C B,D|C3||
|:G, CE|G3C EG|FA/F/ DE2F|A4-AB/A/|\
G4c/G/E/D/|C3G, CE|G2~F2~E2|D6-|
D4DE|F2B,C DE|F3A- AB|cG- GE- ED|C4E2|\
D3E DE|^F3D (3AFA|G2G3A|
B4c/B/A/B/|c2~G3F|E3D- DC|c2A3G|F4ED|\
E3G, CE|DF/D/ B,G, B,D|CE G,C B,D|C3:|
